;FLAVOR:Marlin
;TIME:11259
;Filament used: 11.0326m
;Layer height: 0.15
;MINX:25.2
;MINY:4.347
;MINZ:0.3
;MAXX:85.653
;MAXY:104.8
;MAXZ:19.95
;Generated with Cura_SteamEngine 4.10.0
M104 S200
M105
M109 S200
M82 ;absolute extrusion mode
G28 ;Home
G1 Z15.0 F6000 ;Move the platform down 15mm
;Prime the extruder
G92 E0
G1 F200 E3
G92 E0
G92 E0
G92 E0
G1 F1500 E-6.5
;LAYER_COUNT:132
;LAYER:0
M107
;MESH:top_UltrasonicSensorCase.stl
G0 F3600 X75.086 Y14.895 Z0.3
;TYPE:WALL-INNER
G1 F1500 E0
G1 F1800 X75.684 Y15.081 E0.03124
G1 X76.315 Y15.081 E0.06272
G1 X76.912 Y14.896 E0.09391
G1 X77.431 Y14.544 E0.12519
G1 X77.819 Y14.056 E0.1563
G1 X78.027 Y13.565 E0.1829
G1 X78.104 Y12.948 E0.21392
G1 X77.995 Y12.329 E0.24528
G1 X77.708 Y11.771 E0.27658
G1 X77.269 Y11.32 E0.30798
G1 X76.718 Y11.021 E0.33926
G1 X76.123 Y10.902 E0.36953
G1 X75.881 Y10.901 E0.38161
G1 X75.281 Y11.021 E0.41213
G1 X74.731 Y11.321 E0.44339
G1 X74.292 Y11.771 E0.47475
G1 X74.005 Y12.329 E0.50606
G1 X73.896 Y12.948 E0.53742
G1 X73.974 Y13.57 E0.56869
G1 X74.23 Y14.137 E0.59973
G1 X74.573 Y14.547 E0.6264
G1 X75.086 Y14.895 E0.65732
G0 F3600 X75.043 Y14.985
G0 X46.482 Y19.408
G0 X45.324 Y19.957
G0 X44.559 Y20.989
G0 X44.362 Y63.145
G0 X44.735 Y64.358
G0 X45.421 Y65.092
G0 X46.214 Y65.586
G0 X46.243 Y65.491
G1 F1800 X46.857 Y65.598 E0.68842
G1 X47.132 Y65.6 E0.70214
G1 X83.049 Y65.601 E2.49404
G1 X83.469 Y65.685 E2.51541
G1 X83.773 Y65.837 E2.53237
G1 X84.029 Y66.056 E2.54918
G1 X84.262 Y66.402 E2.56999
G1 X84.371 Y66.732 E2.58733
G1 X84.4 Y67.304 E2.6159
G1 X84.399 Y103.044 E4.39898
G1 X84.315 Y103.47 E4.42064
G1 X84.163 Y103.773 E4.43755
G1 X83.944 Y104.029 E4.45436
G1 X83.598 Y104.262 E4.47517
G1 X83.267 Y104.371 E4.49256
G1 X82.782 Y104.4 E4.5168
G1 X26.951 Y104.399 E7.30222
G1 X26.531 Y104.315 E7.32359
G1 X26.227 Y104.163 E7.34054
G1 X25.967 Y103.94 E7.35763
G1 X25.768 Y103.658 E7.37485
G1 X25.63 Y103.27 E7.3954
G1 X25.6 Y102.62 E7.42786
G1 X25.601 Y6.951 E12.20081
G1 X25.685 Y6.531 E12.22217
G1 X25.837 Y6.226 E12.23918
G1 X26.056 Y5.971 E12.25595
G1 X26.402 Y5.738 E12.27676
G1 X26.733 Y5.629 E12.29414
G1 X27.282 Y5.6 E12.32157
G1 X83.049 Y5.601 E15.1038
G1 X83.469 Y5.685 E15.12517
G1 X83.773 Y5.837 E15.14212
G1 X84.029 Y6.056 E15.15893
G1 X84.262 Y6.402 E15.17974
G1 X84.372 Y6.736 E15.19729
G1 X84.4 Y7.063 E15.21366
G1 X84.399 Y18.049 E15.76175
G1 X84.315 Y18.469 E15.78312
G1 X84.163 Y18.773 E15.80008
G1 X83.944 Y19.029 E15.81689
G1 X83.598 Y19.262 E15.8377
G1 X83.266 Y19.371 E15.85513
G1 X82.79 Y19.4 E15.87892
G1 X47.05 Y19.4 E17.662
G1 X46.49 Y19.447 E17.69004
G1 X45.888 Y19.647 E17.72168
G1 X45.349 Y19.987 E17.75348
G1 X44.909 Y20.45 E17.78534
G1 X44.595 Y21.004 E17.81711
G1 X44.427 Y21.614 E17.84868
G1 X44.4 Y22.143 E17.87511
G1 X44.401 Y63.142 E19.92055
G1 X44.51 Y63.757 E19.95171
G1 X44.769 Y64.338 E19.98345
G1 X45.16 Y64.84 E20.0152
G1 X45.662 Y65.231 E20.04694
G1 X46.243 Y65.491 E20.0787
G0 F3600 X46.214 Y65.586
G0 X31.968 Y95.317
G0 X31.936 Y96.58
G0 X32.395 Y97.394
G0 X33.043 Y97.985
G0 X33.086 Y97.895
G1 F1800 X33.684 Y98.081 E20.10994
G1 X34.315 Y98.081 E20.14142
G1 X34.912 Y97.896 E20.1726
G1 X35.431 Y97.544 E20.20389
G1 X35.819 Y97.056 E20.23499
G1 X36.027 Y96.565 E20.2616
G1 X36.104 Y95.948 E20.29262
G1 X35.995 Y95.329 E20.32398
G1 X35.708 Y94.771 E20.35528
G1 X35.269 Y94.32 E20.38668
G1 X34.718 Y94.021 E20.41796
G1 X34.123 Y93.902 E20.44823
G1 X33.881 Y93.901 E20.4603
G1 X33.281 Y94.021 E20.49083
G1 X32.731 Y94.321 E20.52209
G1 X32.292 Y94.771 E20.55345
G1 X32.005 Y95.329 E20.58476
G1 X31.896 Y95.948 E20.61611
G1 X31.974 Y96.57 E20.64739
G1 X32.23 Y97.137 E20.67843
G1 X32.573 Y97.547 E20.70509
G1 X33.086 Y97.895 E20.73602
G0 F3600 X33.262 Y97.531
;TYPE:WALL-OUTER
G1 F1800 X33.745 Y97.681 E20.76125
G1 X34.255 Y97.681 E20.7867
G1 X34.737 Y97.532 E20.81187
G1 X35.156 Y97.247 E20.83715
G1 X35.472 Y96.85 E20.86246
G1 X35.637 Y96.46 E20.88359
G1 X35.7 Y95.958 E20.90883
G1 X35.612 Y95.458 E20.93416
G1 X35.38 Y95.007 E20.95946
G1 X35.025 Y94.643 E20.98483
G1 X34.58 Y94.401 E21.0101
G1 X34.082 Y94.302 E21.03543
G1 X33.919 Y94.301 E21.04357
G1 X33.419 Y94.401 E21.069
G1 X32.975 Y94.643 E21.09423
G1 X32.62 Y95.007 E21.1196
G1 X32.388 Y95.458 E21.1449
G1 X32.3 Y95.958 E21.17023
G1 X32.363 Y96.46 E21.19547
G1 X32.572 Y96.922 E21.22077
G1 X32.844 Y97.247 E21.24191
G1 X33.262 Y97.531 E21.26713
G0 F3600 X33.453 Y97.59
G0 X33.305 Y98.067
G0 X34.32 Y98.12
G0 X35.458 Y97.573
G0 X46.275 Y65.597
G0 X46.361 Y65.105
G1 F1800 X46.893 Y65.198 E21.29407
G1 X47.134 Y65.2 E21.30609
G1 X83.087 Y65.201 E23.0998
G1 X83.602 Y65.304 E23.126
G1 X83.995 Y65.5 E23.14791
G1 X84.331 Y65.788 E23.16999
G1 X84.625 Y66.226 E23.19631
G1 X84.767 Y66.655 E23.21885
G1 X84.8 Y67.304 E23.25127
G1 X84.799 Y103.082 E25.03624
G1 X84.696 Y103.602 E25.06269
G1 X84.5 Y103.995 E25.0846
G1 X84.212 Y104.331 E25.10668
G1 X83.774 Y104.625 E25.133
G1 X83.345 Y104.767 E25.15554
G1 X82.789 Y104.8 E25.18333
G1 X26.913 Y104.799 E27.97099
G1 X26.398 Y104.696 E27.9972
G1 X26.005 Y104.5 E28.01911
G1 X25.669 Y104.212 E28.04118
G1 X25.409 Y103.843 E28.0637
G1 X25.233 Y103.345 E28.09006
G1 X25.2 Y102.639 E28.12532
G1 X25.201 Y6.913 E32.90111
G1 X25.304 Y6.398 E32.92731
G1 X25.5 Y6.005 E32.94922
G1 X25.788 Y5.669 E32.9713
G1 X26.226 Y5.375 E32.99761
G1 X26.655 Y5.233 E33.02016
G1 X27.28 Y5.2 E33.05138
G1 X83.087 Y5.201 E35.83561
G1 X83.602 Y5.304 E35.86181
G1 X83.995 Y5.5 E35.88372
G1 X84.331 Y5.788 E35.9058
G1 X84.625 Y6.226 E35.93212
G1 X84.767 Y6.655 E35.95466
G1 X84.8 Y7.041 E35.97399
G1 X84.799 Y18.087 E36.52508
G1 X84.696 Y18.602 E36.55128
G1 X84.5 Y18.995 E36.57319
G1 X84.212 Y19.331 E36.59527
G1 X83.774 Y19.625 E36.62158
G1 X83.345 Y19.767 E36.64413
G1 X82.797 Y19.8 E36.67152
G1 X47.067 Y19.8 E38.4541
G1 X46.571 Y19.842 E38.47893
G1 X46.06 Y20.011 E38.50578
G1 X45.605 Y20.299 E38.53265
G1 X45.233 Y20.69 E38.55957
G1 X44.967 Y21.158 E38.58643
G1 X44.824 Y21.678 E38.61333
G1 X44.8 Y22.153 E38.63706
G1 X44.801 Y63.107 E40.68027
G1 X44.895 Y63.639 E40.70722
G1 X45.114 Y64.131 E40.73409
G1 X45.445 Y64.555 E40.76092
G1 X45.869 Y64.886 E40.78776
G1 X46.361 Y65.105 E40.81463
G0 F3600 X46.558 Y65.139
G0 X46.472 Y65.631
G0 X45.642 Y65.265
G0 X44.735 Y64.358
G0 X44.362 Y63.145
G0 X44.388 Y21.608
G0 X44.877 Y20.427
G0 X45.871 Y19.611
G0 X75.114 Y15.007
G0 X75.262 Y14.531
G1 F1800 X75.745 Y14.681 E40.83986
G1 X76.255 Y14.681 E40.8653
G1 X76.737 Y14.532 E40.89047
G1 X77.156 Y14.247 E40.91575
G1 X77.472 Y13.85 E40.94107
G1 X77.637 Y13.46 E40.9622
G1 X77.7 Y12.958 E40.98744
G1 X77.612 Y12.458 E41.01277
G1 X77.38 Y12.007 E41.03807
G1 X77.025 Y11.643 E41.06344
G1 X76.58 Y11.401 E41.08871
G1 X76.082 Y11.302 E41.11404
G1 X75.919 Y11.301 E41.12217
G1 X75.419 Y11.401 E41.14761
G1 X74.975 Y11.643 E41.17284
G1 X74.62 Y12.007 E41.1982
G1 X74.388 Y12.458 E41.22351
G1 X74.3 Y12.958 E41.24884
G1 X74.363 Y13.46 E41.27408
G1 X74.572 Y13.922 E41.29938
G1 X74.844 Y14.247 E41.32052
G1 X75.262 Y14.531 E41.34573
G0 F3600 X75.453 Y14.59
G0 X74.915 Y15.25
;TYPE:SKIN
G1 F1800 X75.625 Y15.471 E41.38283
G1 X76.374 Y15.471 E41.4202
G1 X77.083 Y15.251 E41.45723
G1 X77.7 Y14.833 E41.49441
G1 X78.158 Y14.257 E41.53113
G1 X78.407 Y13.667 E41.56308
G1 X78.498 Y12.938 E41.59973
G1 X78.369 Y12.203 E41.63696
G1 X78.028 Y11.541 E41.67411
G1 X77.507 Y11.006 E41.71137
G1 X76.852 Y10.65 E41.74856
G1 X76.162 Y10.512 E41.78367
G1 X75.844 Y10.511 E41.79953
G1 X75.146 Y10.65 E41.83504
G1 X74.493 Y11.007 E41.87217
G1 X73.972 Y11.541 E41.90939
G1 X73.631 Y12.203 E41.94654
G1 X73.502 Y12.938 E41.98377
G1 X73.594 Y13.677 E42.02092
G1 X73.897 Y14.346 E42.05756
G1 X74.309 Y14.839 E42.08962
G1 X74.915 Y15.25 E42.12615
G0 F3600 X82.766 Y19.01
G1 F1800 X47.034 Y19.01 E43.90882
G1 X46.412 Y19.063 E43.93997
G1 X45.72 Y19.292 E43.97633
G1 X45.1 Y19.683 E44.0129
G1 X44.593 Y20.216 E44.0496
G1 X44.232 Y20.854 E44.08618
G1 X44.039 Y21.552 E44.12231
G1 X44.01 Y22.133 E44.15133
G1 X44.011 Y63.177 E46.19902
G1 X44.134 Y63.872 E46.23423
G1 X44.432 Y64.54 E46.27073
G1 X44.882 Y65.118 E46.30727
G1 X45.459 Y65.568 E46.34378
G1 X46.128 Y65.867 E46.38034
G1 X46.822 Y65.988 E46.41548
G1 X47.13 Y65.99 E46.43085
G1 X83.013 Y65.991 E48.22106
G1 X83.339 Y66.057 E48.23765
G1 X83.555 Y66.165 E48.2497
G1 X83.735 Y66.318 E48.26149
G1 X83.908 Y66.575 E48.27694
G1 X83.983 Y66.805 E48.28901
G1 X84.01 Y67.324 E48.31494
G1 X84.009 Y103.008 E50.09522
G1 X83.944 Y103.339 E50.11205
G1 X83.835 Y103.557 E50.12421
G1 X83.683 Y103.734 E50.13585
G1 X83.423 Y103.91 E50.15152
G1 X83.196 Y103.984 E50.16343
G1 X82.759 Y104.01 E50.18527
G1 X26.987 Y104.009 E52.96774
G1 X26.661 Y103.943 E52.98434
G1 X26.445 Y103.836 E52.99637
G1 X26.254 Y103.672 E53.00892
G1 X26.117 Y103.479 E53.02073
G1 X26.018 Y103.198 E53.0356
G1 X25.99 Y102.62 E53.06447
G1 X25.991 Y6.987 E57.83562
G1 X26.057 Y6.661 E57.85221
G1 X26.165 Y6.444 E57.8643
G1 X26.317 Y6.266 E57.87598
G1 X26.575 Y6.092 E57.89151
G1 X26.806 Y6.017 E57.90362
G1 X27.303 Y5.99 E57.92846
G1 X83.013 Y5.991 E60.70784
G1 X83.339 Y6.057 E60.72443
G1 X83.555 Y6.165 E60.73648
G1 X83.735 Y6.318 E60.74827
G1 X83.908 Y6.575 E60.76372
G1 X83.988 Y6.819 E60.77653
G1 X84.01 Y7.063 E60.78876
G1 X84.009 Y18.013 E61.33505
G1 X83.943 Y18.339 E61.35165
G1 X83.835 Y18.555 E61.3637
G1 X83.683 Y18.734 E61.37541
G1 X83.424 Y18.908 E61.39098
G1 X83.194 Y18.983 E61.40305
G1 X82.766 Y19.01 E61.42444
G0 F3600 X47.049 Y19.361
G0 X45.871 Y19.611
G0 X44.877 Y20.427
G0 X44.422 Y21.49
G0 X34.852 Y93.65
G1 F1800 X34.162 Y93.512 E61.45955
G1 X33.844 Y93.511 E61.47542
G1 X33.146 Y93.65 E61.51092
G1 X32.493 Y94.007 E61.54805
G1 X31.972 Y94.541 E61.58527
G1 X31.631 Y95.203 E61.62242
G1 X31.502 Y95.938 E61.65965
G1 X31.594 Y96.677 E61.69681
G1 X31.897 Y97.346 E61.73345
G1 X32.309 Y97.839 E61.7655
G1 X32.915 Y98.25 E61.80203
G1 X33.625 Y98.471 E61.83913
G1 X34.374 Y98.471 E61.8765
G1 X35.083 Y98.251 E61.91353
G1 X35.7 Y97.833 E61.95072
G1 X36.158 Y97.257 E61.98743
G1 X36.407 Y96.667 E62.01938
G1 X36.498 Y95.938 E62.05603
G1 X36.369 Y95.203 E62.09326
G1 X36.028 Y94.541 E62.13041
G1 X35.507 Y94.006 E62.16767
G1 X34.852 Y93.65 E62.20486
G0 F3600 X33.268 Y93.984
G0 X32.346 Y94.66
G0 X26.194 Y103.127
G1 F1800 X26.866 Y103.799 E62.25228
G0 F3600 X27.46 Y103.828
G1 F1800 X26.169 Y102.536 E62.3434
G0 F3600 X26.169 Y101.971
G1 F1800 X28.026 Y103.828 E62.47442
G0 F3600 X28.591 Y103.828
G1 F1800 X26.169 Y101.405 E62.64534
G0 F3600 X26.169 Y100.839
G1 F1800 X29.157 Y103.828 E62.85619
G0 F3600 X29.723 Y103.828
G1 F1800 X26.169 Y100.274 E63.10695
G0 F3600 X26.169 Y99.708
G1 F1800 X30.288 Y103.828 E63.3976
G0 F3600 X30.854 Y103.828
G1 F1800 X26.169 Y99.142 E63.72819
G0 F3600 X26.169 Y98.577
G1 F1800 X31.42 Y103.828 E64.09867
G0 F3600 X31.985 Y103.828
G1 F1800 X26.169 Y98.011 E64.50906
G0 F3600 X26.169 Y97.445
G1 F1800 X32.551 Y103.828 E64.95938
G0 F3600 X33.117 Y103.828
G1 F1800 X26.169 Y96.879 E65.44963
G0 F3600 X26.169 Y96.314
G1 F1800 X33.683 Y103.828 E65.97979
G0 F3600 X34.248 Y103.828
G1 F1800 X26.169 Y95.748 E66.54984
G0 F3600 X26.169 Y95.182
G1 F1800 X34.814 Y103.828 E67.15983
G0 F3600 X35.38 Y103.828
G1 F1800 X26.169 Y94.617 E67.80971
G0 F3600 X26.169 Y94.051
G1 F1800 X35.945 Y103.828 E68.4995
G0 F3600 X36.511 Y103.828
G1 F1800 X26.169 Y93.485 E69.22922
G0 F3600 X26.169 Y92.92
G1 F1800 X37.077 Y103.828 E69.99883
G0 F3600 X37.642 Y103.828
G1 F1800 X26.169 Y92.354 E70.80835
G0 F3600 X26.169 Y91.788
G1 F1800 X31.677 Y97.297 E71.19701
G1 X31.747 Y97.367
G0 F3600 X31.383 Y96.437
G1 F1800 X26.169 Y91.223 E71.56488
G0 F3600 X26.169 Y90.657
G1 F1800 X31.339 Y95.827 E71.92965
G0 F3600 X31.423 Y95.346
G1 F1800 X26.169 Y90.091 E72.30039
G0 F3600 X26.169 Y89.526
G1 F1800 X31.57 Y94.926 E72.68142
G0 F3600 X31.763 Y94.554
G1 F1800 X26.169 Y88.96 E73.07611
G0 F3600 X26.169 Y88.394
G1 F1800 X32.014 Y94.239 E73.4885
G0 F3600 X32.293 Y93.953
G1 F1800 X26.169 Y87.829 E73.92059
G0 F3600 X26.169 Y87.263
G1 F1800 X32.631 Y93.725 E74.37652
G0 F3600 X32.997 Y93.526
G1 F1800 X26.169 Y86.697 E74.8583
G0 F3600 X26.169 Y86.131
G1 F1800 X33.444 Y93.406 E75.37159
G0 F3600 X33.933 Y93.33
G1 F1800 X26.169 Y85.566 E75.91939
G0 F3600 X26.169 Y85
G1 F1800 X34.58 Y93.411 E76.51283
G1 X34.65 Y93.481
G0 F3600 X35.568 Y93.834
G1 F1800 X26.169 Y84.434 E77.17601
G0 F3600 X26.169 Y83.869
G1 F1800 X46.128 Y103.828 E78.58423
G0 F3600 X46.693 Y103.828
G1 F1800 X26.169 Y83.303 E80.03234
G0 F3600 X26.169 Y82.737
G1 F1800 X47.259 Y103.828 E81.52039
G0 F3600 X47.825 Y103.828
G1 F1800 X26.169 Y82.172 E83.04834
G0 F3600 X26.169 Y81.606
G1 F1800 X48.39 Y103.828 E84.61619
G0 F3600 X48.956 Y103.828
G1 F1800 X26.169 Y81.04 E86.22397
G0 F3600 X26.169 Y80.475
G1 F1800 X49.522 Y103.828 E87.87165
G0 F3600 X50.087 Y103.828
G1 F1800 X26.169 Y79.909 E89.55923
G0 F3600 X26.169 Y79.343
G1 F1800 X50.653 Y103.828 E91.28674
G0 F3600 X51.219 Y103.828
G1 F1800 X26.169 Y78.778 E93.05415
G0 F3600 X26.169 Y78.212
G1 F1800 X51.784 Y103.828 E94.86146
G0 F3600 X52.35 Y103.828
G1 F1800 X26.169 Y77.646 E96.70871
G0 F3600 X26.169 Y77.081
G1 F1800 X52.916 Y103.828 E98.59586
G0 F3600 X53.482 Y103.828
G1 F1800 X26.169 Y76.515 E100.52294
G0 F3600 X26.169 Y75.949
G1 F1800 X54.047 Y103.828 E102.48991
G0 F3600 X54.613 Y103.828
G1 F1800 X26.169 Y75.383 E104.49683
G0 F3600 X26.169 Y74.818
G1 F1800 X55.179 Y103.828 E106.54364
G0 F3600 X55.745 Y103.828
G1 F1800 X26.169 Y74.252 E108.63039
G0 F3600 X26.169 Y73.686
G1 F1800 X56.311 Y103.828 E110.75707
G0 F3600 X56.876 Y103.828
G1 F1800 X26.169 Y73.121 E112.92361
G0 F3600 X26.169 Y72.555
G1 F1800 X57.442 Y103.828 E115.13009
G0 F3600 X58.008 Y103.828
G1 F1800 X26.169 Y71.989 E117.3765
G0 F3600 X26.169 Y71.424
G1 F1800 X58.573 Y103.828 E119.66278
G0 F3600 X59.139 Y103.828
G1 F1800 X26.169 Y70.858 E121.98899
G0 F3600 X26.169 Y70.292
G1 F1800 X59.705 Y103.828 E124.35514
G0 F3600 X60.27 Y103.828
G1 F1800 X26.169 Y69.727 E126.76115
G0 F3600 X26.169 Y69.161
G1 F1800 X60.836 Y103.828 E129.20709
G0 F3600 X61.402 Y103.828
G1 F1800 X26.169 Y68.595 E131.69297
G0 F3600 X26.169 Y68.03
G1 F1800 X61.968 Y103.828 E134.21875
G0 F3600 X62.533 Y103.828
G1 F1800 X26.169 Y67.464 E136.78443
G0 F3600 X26.169 Y66.898
G1 F1800 X63.099 Y103.828 E139.39004
G0 F3600 X63.665 Y103.828
G1 F1800 X26.169 Y66.332 E142.03558
G0 F3600 X26.169 Y65.767
G1 F1800 X64.23 Y103.828 E144.72099
G0 F3600 X64.796 Y103.828
G1 F1800 X26.169 Y65.201 E147.44633
G0 F3600 X26.169 Y64.635
G1 F1800 X65.362 Y103.828 E150.21161
G0 F3600 X65.927 Y103.828
G1 F1800 X26.169 Y64.07 E153.01675
G0 F3600 X26.169 Y63.504
G1 F1800 X66.493 Y103.828 E155.86183
G0 F3600 X67.059 Y103.828
G1 F1800 X26.169 Y62.938 E158.74684
G0 F3600 X26.169 Y62.373
G1 F1800 X67.624 Y103.828 E161.67171
G0 F3600 X68.19 Y103.828
G1 F1800 X26.169 Y61.807 E164.63652
G0 F3600 X26.169 Y61.241
G1 F1800 X68.756 Y103.828 E167.64127
G0 F3600 X69.321 Y103.828
G1 F1800 X26.169 Y60.676 E170.68587
G0 F3600 X26.169 Y60.11
G1 F1800 X69.887 Y103.828 E173.77041
G0 F3600 X70.453 Y103.828
G1 F1800 X26.169 Y59.544 E176.89489
G0 F3600 X26.169 Y58.979
G1 F1800 X71.018 Y103.828 E180.05923
G0 F3600 X71.584 Y103.828
G1 F1800 X26.169 Y58.413 E183.2635
G0 F3600 X26.169 Y57.847
G1 F1800 X72.15 Y103.828 E186.50771
G0 F3600 X72.716 Y103.828
G1 F1800 X26.169 Y57.282 E189.79182
G0 F3600 X26.169 Y56.716
G1 F1800 X73.281 Y103.828 E193.11582
G0 F3600 X73.847 Y103.828
G1 F1800 X26.169 Y56.15 E196.47976
G0 F3600 X26.169 Y55.584
G1 F1800 X74.413 Y103.828 E199.88364
G0 F3600 X74.978 Y103.828
G1 F1800 X26.169 Y55.019 E203.32738
G0 F3600 X26.169 Y54.453
G1 F1800 X75.544 Y103.828 E206.81105
G0 F3600 X76.11 Y103.828
G1 F1800 X26.169 Y53.887 E210.33466
G0 F3600 X26.169 Y53.322
G1 F1800 X76.675 Y103.828 E213.89813
G0 F3600 X77.241 Y103.828
G1 F1800 X26.169 Y52.756 E217.50153
G0 F3600 X26.169 Y52.19
G1 F1800 X77.807 Y103.828 E221.14487
G0 F3600 X78.372 Y103.828
G1 F1800 X26.169 Y51.625 E224.82808
G0 F3600 X26.169 Y51.059
G1 F1800 X78.938 Y103.828 E228.55121
G0 F3600 X79.504 Y103.828
G1 F1800 X26.169 Y50.493 E232.31429
G0 F3600 X26.169 Y49.928
G1 F1800 X80.069 Y103.828 E236.11722
G0 F3600 X80.635 Y103.828
G1 F1800 X26.169 Y49.362 E239.96009
