;FLAVOR:Marlin
;TIME:11889
;Filament used: 12.2294m
;Layer height: 0.15
;MINX:25.2
;MINY:5.2
;MINZ:0.3
;MAXX:85.653
;MAXY:104.8
;MAXZ:19.95
;Generated with Cura_SteamEngine 4.10.0
M104 S200
M105
M109 S200
M82 ;absolute extrusion mode
G28 ;Home
G1 Z15.0 F6000 ;Move the platform down 15mm
;Prime the extruder
G92 E0
G1 F200 E3
G92 E0
G92 E0
G92 E0
G1 F1500 E-6.5
;LAYER_COUNT:132
;LAYER:0
M107
;MESH:top_UltrasonicSensorCase.stl
G0 F3600 X74.911 Y15.259 Z0.3
;TYPE:WALL-INNER
G1 F1500 E0
G1 F1800 X75.623 Y15.481 E0.03721
G1 X76.376 Y15.481 E0.07478
G1 X77.087 Y15.26 E0.11192
G1 X77.706 Y14.841 E0.14921
G1 X78.166 Y14.262 E0.18611
G1 X78.417 Y13.67 E0.21819
G1 X78.508 Y12.938 E0.25499
G1 X78.378 Y12.2 E0.29237
G1 X78.036 Y11.535 E0.32968
G1 X77.513 Y10.997 E0.36711
G1 X76.856 Y10.641 E0.40439
G1 X76.163 Y10.502 E0.43966
G1 X75.842 Y10.501 E0.45567
G1 X75.143 Y10.641 E0.49124
G1 X74.487 Y10.999 E0.52852
G1 X73.964 Y11.535 E0.56588
G1 X73.622 Y12.2 E0.60319
G1 X73.492 Y12.938 E0.64058
G1 X73.585 Y13.68 E0.67789
G1 X73.888 Y14.352 E0.71466
G1 X74.302 Y14.847 E0.74686
G1 X74.911 Y15.259 E0.78354
G0 F3600 X46.482 Y19.408
G0 X45.324 Y19.957
G0 X44.559 Y20.989
G0 X44.362 Y63.145
G0 X44.735 Y64.358
G0 X46.125 Y65.876
G1 F1800 X46.821 Y65.998 E0.81879
G1 X47.131 Y66 E0.83426
G1 X83.011 Y66.001 E2.62432
G1 X83.336 Y66.066 E2.64085
G1 X83.551 Y66.173 E2.65284
G1 X83.728 Y66.325 E2.66448
G1 X83.899 Y66.579 E2.67975
G1 X83.975 Y66.808 E2.69179
G1 X84 Y67.304 E2.71657
G1 X83.999 Y103.008 E4.49785
G1 X83.934 Y103.337 E4.51458
G1 X83.827 Y103.551 E4.52651
G1 X83.675 Y103.728 E4.53815
G1 X83.421 Y103.899 E4.55343
G1 X83.19 Y103.975 E4.56556
G1 X82.775 Y104 E4.5863
G1 X26.989 Y103.999 E7.36948
G1 X26.664 Y103.934 E7.38601
G1 X26.449 Y103.827 E7.398
G1 X26.266 Y103.67 E7.41003
G1 X26.126 Y103.471 E7.42216
G1 X26.027 Y103.193 E7.43689
G1 X26 Y102.602 E7.4664
G1 X26.001 Y6.989 E12.23656
G1 X26.066 Y6.662 E12.25319
G1 X26.172 Y6.449 E12.26506
G1 X26.324 Y6.273 E12.27666
G1 X26.579 Y6.101 E12.29201
G1 X26.809 Y6.025 E12.30409
G1 X27.284 Y6 E12.32782
G1 X83.011 Y6.001 E15.10805
G1 X83.336 Y6.066 E15.12459
G1 X83.551 Y6.173 E15.13657
G1 X83.728 Y6.325 E15.14821
G1 X83.899 Y6.579 E15.16349
G1 X83.977 Y6.815 E15.17589
G1 X84 Y7.085 E15.18941
G1 X83.999 Y18.011 E15.73451
G1 X83.934 Y18.336 E15.75104
G1 X83.827 Y18.551 E15.76302
G1 X83.675 Y18.728 E15.77466
G1 X83.421 Y18.899 E15.78994
G1 X83.189 Y18.975 E15.80212
G1 X82.782 Y19 E15.82246
G1 X47.033 Y19 E17.60599
G1 X46.409 Y19.052 E17.63723
G1 X45.716 Y19.283 E17.67367
G1 X45.093 Y19.675 E17.71039
G1 X44.585 Y20.21 E17.7472
G1 X44.223 Y20.85 E17.78388
G1 X44.03 Y21.55 E17.82011
G1 X44 Y22.133 E17.84923
G1 X44.001 Y63.177 E19.89693
G1 X44.125 Y63.875 E19.9323
G1 X44.423 Y64.545 E19.96888
G1 X44.875 Y65.125 E20.00556
G1 X45.454 Y65.576 E20.04218
G1 X46.125 Y65.876 E20.07885
G0 F3600 X31.968 Y95.317
G0 X31.936 Y96.58
G0 X32.911 Y98.259
G1 F1800 X33.623 Y98.481 E20.11606
G1 X34.376 Y98.481 E20.15363
G1 X35.087 Y98.26 E20.19077
G1 X35.706 Y97.841 E20.22806
G1 X36.166 Y97.262 E20.26496
G1 X36.417 Y96.67 E20.29704
G1 X36.508 Y95.938 E20.33384
G1 X36.378 Y95.2 E20.37122
G1 X36.036 Y94.535 E20.40853
G1 X35.513 Y93.997 E20.44596
G1 X34.856 Y93.641 E20.48324
G1 X34.163 Y93.502 E20.51851
G1 X33.842 Y93.501 E20.53452
G1 X33.143 Y93.641 E20.57009
G1 X32.487 Y93.999 E20.60737
G1 X31.964 Y94.535 E20.64473
G1 X31.622 Y95.2 E20.68204
G1 X31.492 Y95.938 E20.71943
G1 X31.585 Y96.68 E20.75674
G1 X31.888 Y97.352 E20.79351
G1 X32.302 Y97.847 E20.82571
G1 X32.911 Y98.259 E20.86239
G0 F3600 X33.086 Y97.895
G1 F1800 X33.684 Y98.081 E20.89363
G1 X34.315 Y98.081 E20.92511
G1 X34.912 Y97.896 E20.9563
G1 X35.431 Y97.544 E20.98758
G1 X35.819 Y97.056 E21.01869
G1 X36.027 Y96.565 E21.04529
G1 X36.104 Y95.948 E21.07631
G1 X35.995 Y95.329 E21.10767
G1 X35.708 Y94.771 E21.13897
G1 X35.269 Y94.32 E21.17037
G1 X34.718 Y94.021 E21.20165
G1 X34.123 Y93.902 E21.23192
G1 X33.881 Y93.901 E21.244
G1 X33.281 Y94.021 E21.27452
G1 X32.731 Y94.321 E21.30578
G1 X32.292 Y94.771 E21.33714
G1 X32.005 Y95.329 E21.36845
G1 X31.896 Y95.948 E21.39981
G1 X31.974 Y96.57 E21.43108
G1 X32.23 Y97.137 E21.46212
G1 X32.573 Y97.547 E21.48879
G1 X33.086 Y97.895 E21.51971
G0 F3600 X33.043 Y97.985
G0 X32.197 Y97.158
G0 X31.857 Y95.948
G0 X46.214 Y65.586
G0 X46.243 Y65.491
G1 F1800 X46.857 Y65.598 E21.55081
G1 X47.132 Y65.6 E21.56453
G1 X83.049 Y65.601 E23.35643
G1 X83.469 Y65.685 E23.3778
G1 X83.773 Y65.837 E23.39476
G1 X84.029 Y66.056 E23.41157
G1 X84.262 Y66.402 E23.43238
G1 X84.371 Y66.732 E23.44972
G1 X84.4 Y67.304 E23.47829
G1 X84.399 Y103.044 E25.26137
G1 X84.315 Y103.47 E25.28303
G1 X84.163 Y103.773 E25.29994
G1 X83.944 Y104.029 E25.31675
G1 X83.598 Y104.262 E25.33756
G1 X83.267 Y104.371 E25.35495
G1 X82.782 Y104.4 E25.37919
G1 X26.951 Y104.399 E28.16461
G1 X26.531 Y104.315 E28.18598
G1 X26.227 Y104.163 E28.20293
G1 X25.967 Y103.94 E28.22002
G1 X25.768 Y103.658 E28.23724
G1 X25.63 Y103.27 E28.25779
G1 X25.6 Y102.62 E28.29025
G1 X25.601 Y6.951 E33.06319
G1 X25.685 Y6.531 E33.08456
G1 X25.837 Y6.226 E33.10157
G1 X26.056 Y5.971 E33.11833
G1 X26.402 Y5.738 E33.13915
G1 X26.733 Y5.629 E33.15653
G1 X27.282 Y5.6 E33.18396
G1 X83.049 Y5.601 E35.96619
G1 X83.469 Y5.685 E35.98756
G1 X83.773 Y5.837 E36.00451
G1 X84.029 Y6.056 E36.02132
G1 X84.262 Y6.402 E36.04213
G1 X84.372 Y6.736 E36.05968
G1 X84.4 Y7.063 E36.07605
G1 X84.399 Y18.049 E36.62414
G1 X84.315 Y18.469 E36.64551
G1 X84.163 Y18.773 E36.66247
G1 X83.944 Y19.029 E36.67928
G1 X83.598 Y19.262 E36.70009
G1 X83.266 Y19.371 E36.71752
G1 X82.79 Y19.4 E36.74131
G1 X47.05 Y19.4 E38.52439
G1 X46.49 Y19.447 E38.55242
G1 X45.888 Y19.647 E38.58407
G1 X45.349 Y19.987 E38.61587
G1 X44.909 Y20.45 E38.64773
G1 X44.595 Y21.004 E38.6795
G1 X44.427 Y21.614 E38.71107
G1 X44.4 Y22.143 E38.7375
G1 X44.401 Y63.142 E40.78294
G1 X44.51 Y63.757 E40.8141
G1 X44.769 Y64.338 E40.84584
G1 X45.16 Y64.84 E40.87759
G1 X45.662 Y65.231 E40.90933
G1 X46.243 Y65.491 E40.94109
G0 F3600 X46.214 Y65.586
G0 X45.132 Y64.868
G0 X44.472 Y63.768
G0 X44.388 Y21.608
G0 X44.877 Y20.427
G0 X45.871 Y19.611
G0 X75.043 Y14.985
G0 X75.086 Y14.895
G1 F1800 X75.684 Y15.081 E40.97233
G1 X76.315 Y15.081 E41.00381
G1 X76.912 Y14.896 E41.03499
G1 X77.431 Y14.544 E41.06628
G1 X77.819 Y14.056 E41.09738
G1 X78.027 Y13.565 E41.12399
G1 X78.104 Y12.948 E41.15501
G1 X77.995 Y12.329 E41.18637
G1 X77.708 Y11.771 E41.21767
G1 X77.269 Y11.32 E41.24907
G1 X76.718 Y11.021 E41.28035
G1 X76.123 Y10.902 E41.31062
G1 X75.881 Y10.901 E41.32269
G1 X75.281 Y11.021 E41.35322
G1 X74.731 Y11.321 E41.38448
G1 X74.292 Y11.771 E41.41584
G1 X74.005 Y12.329 E41.44715
G1 X73.896 Y12.948 E41.4785
G1 X73.974 Y13.57 E41.50978
G1 X74.23 Y14.137 E41.54082
G1 X74.573 Y14.547 E41.56748
G1 X75.086 Y14.895 E41.59841
G0 F3600 X75.262 Y14.531
;TYPE:WALL-OUTER
G1 F1800 X75.745 Y14.681 E41.62364
G1 X76.255 Y14.681 E41.64909
G1 X76.737 Y14.532 E41.67426
G1 X77.156 Y14.247 E41.69954
G1 X77.472 Y13.85 E41.72485
G1 X77.637 Y13.46 E41.74598
G1 X77.7 Y12.958 E41.77122
G1 X77.612 Y12.458 E41.79655
G1 X77.38 Y12.007 E41.82185
G1 X77.025 Y11.643 E41.84722
G1 X76.58 Y11.401 E41.87249
G1 X76.082 Y11.302 E41.89782
G1 X75.919 Y11.301 E41.90596
G1 X75.419 Y11.401 E41.93139
G1 X74.975 Y11.643 E41.95662
G1 X74.62 Y12.007 E41.98199
G1 X74.388 Y12.458 E42.00729
G1 X74.3 Y12.958 E42.03262
G1 X74.363 Y13.46 E42.05786
G1 X74.572 Y13.922 E42.08316
G1 X74.844 Y14.247 E42.1043
G1 X75.262 Y14.531 E42.12952
G0 F3600 X75.453 Y14.59
G0 X75.305 Y15.067
G0 X46.482 Y19.408
G0 X45.324 Y19.957
G0 X44.559 Y20.989
G0 X44.362 Y63.145
G0 X44.735 Y64.358
G0 X45.421 Y65.092
G0 X46.275 Y65.597
G0 X46.361 Y65.105
G1 F1800 X46.893 Y65.198 E42.15646
G1 X47.134 Y65.2 E42.16848
G1 X83.087 Y65.201 E43.96219
G1 X83.602 Y65.304 E43.98839
G1 X83.995 Y65.5 E44.0103
G1 X84.331 Y65.788 E44.03238
G1 X84.625 Y66.226 E44.05869
G1 X84.767 Y66.655 E44.08124
G1 X84.8 Y67.304 E44.11366
G1 X84.799 Y103.082 E45.89863
G1 X84.696 Y103.602 E45.92508
G1 X84.5 Y103.995 E45.94699
G1 X84.212 Y104.331 E45.96907
G1 X83.774 Y104.625 E45.99539
G1 X83.345 Y104.767 E46.01793
G1 X82.789 Y104.8 E46.04572
G1 X26.913 Y104.799 E48.83338
G1 X26.398 Y104.696 E48.85959
G1 X26.005 Y104.5 E48.8815
G1 X25.669 Y104.212 E48.90357
G1 X25.409 Y103.843 E48.92609
G1 X25.233 Y103.345 E48.95245
G1 X25.2 Y102.639 E48.98771
G1 X25.201 Y6.913 E53.7635
G1 X25.304 Y6.398 E53.7897
G1 X25.5 Y6.005 E53.81161
G1 X25.788 Y5.669 E53.83369
G1 X26.226 Y5.375 E53.86
G1 X26.655 Y5.233 E53.88255
G1 X27.28 Y5.2 E53.91377
G1 X83.087 Y5.201 E56.698
G1 X83.602 Y5.304 E56.7242
G1 X83.995 Y5.5 E56.74611
G1 X84.331 Y5.788 E56.76819
G1 X84.625 Y6.226 E56.79451
G1 X84.767 Y6.655 E56.81705
G1 X84.8 Y7.041 E56.83638
G1 X84.799 Y18.087 E57.38747
G1 X84.696 Y18.602 E57.41367
G1 X84.5 Y18.995 E57.43558
G1 X84.212 Y19.331 E57.45766
G1 X83.774 Y19.625 E57.48397
G1 X83.345 Y19.767 E57.50652
G1 X82.797 Y19.8 E57.53391
G1 X47.067 Y19.8 E59.31649
G1 X46.571 Y19.842 E59.34132
G1 X46.06 Y20.011 E59.36817
G1 X45.605 Y20.299 E59.39504
G1 X45.233 Y20.69 E59.42196
G1 X44.967 Y21.158 E59.44882
G1 X44.824 Y21.678 E59.47572
G1 X44.8 Y22.153 E59.49945
G1 X44.801 Y63.107 E61.54266
G1 X44.895 Y63.639 E61.56961
G1 X45.114 Y64.131 E61.59648
G1 X45.445 Y64.555 E61.62331
G1 X45.869 Y64.886 E61.65015
G1 X46.361 Y65.105 E61.67702
G0 F3600 X46.558 Y65.139
G0 X46.472 Y65.631
G0 X31.968 Y95.317
G0 X31.936 Y96.58
G0 X32.48 Y97.496
G0 X33.114 Y98.007
G0 X33.262 Y97.531
G1 F1800 X33.745 Y97.681 E61.70225
G1 X34.255 Y97.681 E61.72769
G1 X34.737 Y97.532 E61.75286
G1 X35.156 Y97.247 E61.77814
G1 X35.472 Y96.85 E61.80346
G1 X35.637 Y96.46 E61.82459
G1 X35.7 Y95.958 E61.84983
G1 X35.612 Y95.458 E61.87516
G1 X35.38 Y95.007 E61.90046
G1 X35.025 Y94.643 E61.92583
G1 X34.58 Y94.401 E61.9511
G1 X34.082 Y94.302 E61.97643
G1 X33.919 Y94.301 E61.98456
G1 X33.419 Y94.401 E62.01
G1 X32.975 Y94.643 E62.03523
G1 X32.62 Y95.007 E62.06059
G1 X32.388 Y95.458 E62.0859
G1 X32.3 Y95.958 E62.11123
G1 X32.363 Y96.46 E62.13647
G1 X32.572 Y96.922 E62.16177
G1 X32.844 Y97.247 E62.18291
G1 X33.262 Y97.531 E62.20812
G0 F3600 X33.453 Y97.59
G0 X33.305 Y98.067
G0 X32.74 Y98.614
;TYPE:SKIN
G1 F1800 X33.564 Y98.871 E62.25118
G1 X34.435 Y98.871 E62.29464
G1 X35.258 Y98.615 E62.33764
G1 X35.975 Y98.13 E62.38082
G1 X36.505 Y97.463 E62.42333
G1 X36.797 Y96.772 E62.46075
G1 X36.902 Y95.928 E62.50319
G1 X36.752 Y95.074 E62.54644
G1 X36.356 Y94.305 E62.5896
G1 X35.751 Y93.683 E62.63289
G1 X34.99 Y93.27 E62.67608
G1 X34.202 Y93.112 E62.71618
G1 X33.803 Y93.111 E62.73609
G1 X33.008 Y93.27 E62.77653
G1 X32.249 Y93.685 E62.81969
G1 X31.644 Y94.305 E62.86291
G1 X31.248 Y95.074 E62.90606
G1 X31.098 Y95.928 E62.94932
G1 X31.205 Y96.787 E62.99251
G1 X31.555 Y97.561 E63.03489
G1 X32.038 Y98.139 E63.07247
G1 X32.74 Y98.614 E63.11476
G0 F3600 X26.39 Y102.602
G1 F1800 X26.391 Y7.025 E67.88311
G1 X26.5 Y6.667 E67.90178
G1 X26.751 Y6.455 E67.91817
G1 X26.882 Y6.413 E67.92504
G1 X27.305 Y6.39 E67.94617
G1 X82.975 Y6.391 E70.72356
G1 X83.333 Y6.5 E70.74223
G1 X83.545 Y6.752 E70.75866
G1 X83.61 Y7.085 E70.77559
G1 X83.609 Y17.975 E71.31889
G1 X83.5 Y18.333 E71.33756
G1 X83.25 Y18.544 E71.35388
G1 X83.117 Y18.588 E71.36087
G1 X82.758 Y18.61 E71.37881
G1 X47.017 Y18.61 E73.16194
G1 X46.329 Y18.668 E73.19639
G1 X45.548 Y18.928 E73.23745
G1 X44.844 Y19.371 E73.27895
G1 X44.269 Y19.976 E73.32059
G1 X43.86 Y20.7 E73.36208
G1 X43.642 Y21.487 E73.40282
G1 X43.61 Y22.123 E73.43459
G1 X43.611 Y63.212 E75.48453
G1 X43.749 Y63.99 E75.52395
G1 X44.086 Y64.748 E75.56533
G1 X44.598 Y65.403 E75.60681
G1 X45.251 Y65.913 E75.64815
G1 X46.01 Y66.252 E75.68962
G1 X46.786 Y66.388 E75.72893
G1 X47.129 Y66.39 E75.74604
G1 X82.975 Y66.391 E77.5344
G1 X83.333 Y66.5 E77.55307
G1 X83.545 Y66.751 E77.56946
G1 X83.587 Y66.881 E77.57628
G1 X83.61 Y67.324 E77.59841
G1 X83.609 Y102.972 E79.3769
G1 X83.5 Y103.333 E79.39571
G1 X83.246 Y103.547 E79.41228
G1 X82.752 Y103.61 E79.43713
G1 X27.025 Y103.609 E82.21736
G1 X26.664 Y103.498 E82.2362
G1 X26.474 Y103.289 E82.25029
G1 X26.415 Y103.121 E82.25917
G1 X26.39 Y102.602 E82.2851
G0 F3600 X44.559 Y20.989
G0 X45.324 Y19.957
G0 X46.365 Y19.448
G0 X74.74 Y15.614
G1 F1800 X75.564 Y15.871 E82.32816
G1 X76.435 Y15.871 E82.37161
G1 X77.258 Y15.615 E82.41462
G1 X77.975 Y15.13 E82.4578
G1 X78.505 Y14.463 E82.5003
G1 X78.797 Y13.772 E82.53773
G1 X78.902 Y12.928 E82.58016
G1 X78.752 Y12.074 E82.62342
G1 X78.356 Y11.305 E82.66657
G1 X77.751 Y10.683 E82.70986
G1 X76.99 Y10.27 E82.75306
G1 X76.202 Y10.112 E82.79316
G1 X75.803 Y10.111 E82.81306
G1 X75.008 Y10.27 E82.85351
G1 X74.249 Y10.685 E82.89667
G1 X73.644 Y11.305 E82.93989
G1 X73.248 Y12.074 E82.98304
G1 X73.098 Y12.928 E83.0263
G1 X73.205 Y13.787 E83.06949
G1 X73.555 Y14.561 E83.11187
G1 X74.038 Y15.139 E83.14945
G1 X74.74 Y15.614 E83.19173
G0 F3600 X76.929 Y14.932
G0 X77.569 Y14.433
G0 X82.937 Y6.57
G1 F1800 X83.42 Y7.052 E83.22578
G0 F3600 X83.429 Y7.627
G1 F1800 X82.372 Y6.57 E83.30035
G0 F3600 X81.806 Y6.57
G1 F1800 X83.429 Y8.193 E83.41486
G0 F3600 X83.429 Y8.758
G1 F1800 X81.24 Y6.57 E83.56927
G0 F3600 X80.675 Y6.57
G1 F1800 X83.429 Y9.324 E83.76358
G0 F3600 X83.429 Y9.89
G1 F1800 X80.109 Y6.57 E83.99783
G0 F3600 X79.543 Y6.57
G1 F1800 X83.429 Y10.455 E84.27197
G0 F3600 X83.429 Y11.021
G1 F1800 X78.978 Y6.57 E84.58601
G0 F3600 X78.412 Y6.57
G1 F1800 X83.429 Y11.587 E84.93999
G0 F3600 X83.429 Y12.153
G1 F1800 X77.846 Y6.57 E85.3339
G0 F3600 X77.281 Y6.57
G1 F1800 X83.428 Y12.718 E85.76764
G0 F3600 X83.428 Y13.283
G1 F1800 X76.715 Y6.57 E86.24128
G0 F3600 X76.149 Y6.57
G1 F1800 X83.428 Y13.849 E86.75485
G0 F3600 X83.428 Y14.415
G1 F1800 X75.584 Y6.57 E87.30832
G0 F3600 X75.018 Y6.57
G1 F1800 X83.428 Y14.98 E87.90169
G0 F3600 X83.428 Y15.546
G1 F1800 X74.452 Y6.57 E88.535
G0 F3600 X73.887 Y6.57
G1 F1800 X77.849 Y10.533 E88.81457
G0 F3600 X78.058 Y10.742
G1 F1800 X83.428 Y16.112 E89.19346
G0 F3600 X83.428 Y16.677
G1 F1800 X78.957 Y12.206 E89.50891
G0 F3600 X79.077 Y12.892
G1 F1800 X83.428 Y17.243 E89.8159
G0 F3600 X83.428 Y17.809
G1 F1800 X79.022 Y13.403 E90.12676
G0 F3600 X78.942 Y13.888
G1 F1800 X83.309 Y18.256 E90.43491
G0 F3600 X82.908 Y18.42
G1 F1800 X78.774 Y14.286 E90.72659
G0 F3600 X78.579 Y14.656
G1 F1800 X82.352 Y18.43 E90.99283
G0 F3600 X81.786 Y18.43
G1 F1800 X78.329 Y14.972 E91.23678
G0 F3600 X78.071 Y15.28
G1 F1800 X81.221 Y18.43 E91.45903
G0 F3600 X80.655 Y18.43
G1 F1800 X77.734 Y15.508 E91.66515
G0 F3600 X77.397 Y15.738
G1 F1800 X80.089 Y18.43 E91.85509
G0 F3600 X79.524 Y18.43
G1 F1800 X76.983 Y15.889 E92.03437
G0 F3600 X76.551 Y16.023
G1 F1800 X78.958 Y18.43 E92.2042
G0 F3600 X78.392 Y18.43
G1 F1800 X76.013 Y16.051 E92.37205
G0 F3600 X75.408 Y16.011
G1 F1800 X77.827 Y18.43 E92.54272
G0 F3600 X77.261 Y18.43
G1 F1800 X74.5 Y15.668 E92.73756
G1 X74.43 Y15.598
G0 F3600 X73.328 Y14.497
G1 F1800 X65.401 Y6.57 E93.29685
G0 F3600 X64.836 Y6.57
G1 F1800 X76.695 Y18.43 E94.13361
G0 F3600 X76.129 Y18.43
G1 F1800 X64.27 Y6.57 E94.97036
G0 F3600 X63.704 Y6.57
G1 F1800 X75.564 Y18.43 E95.80714
G0 F3600 X74.998 Y18.43
G1 F1800 X63.138 Y6.57 E96.64393
G0 F3600 X62.573 Y6.57
G1 F1800 X74.432 Y18.43 E97.48068
G0 F3600 X73.867 Y18.43
G1 F1800 X62.007 Y6.57 E98.31747
G0 F3600 X61.441 Y6.57
G1 F1800 X73.301 Y18.43 E99.15426
G0 F3600 X72.735 Y18.43
G1 F1800 X60.876 Y6.57 E99.99101
G0 F3600 X60.31 Y6.57
G1 F1800 X72.17 Y18.43 E100.8278
G0 F3600 X71.604 Y18.43
G1 F1800 X59.744 Y6.57 E101.66458
G0 F3600 X59.179 Y6.57
G1 F1800 X71.038 Y18.43 E102.50133
G0 F3600 X70.473 Y18.43
G1 F1800 X58.613 Y6.57 E103.33812
G0 F3600 X58.047 Y6.57
G1 F1800 X69.907 Y18.43 E104.17491
G0 F3600 X69.341 Y18.43
G1 F1800 X57.482 Y6.57 E105.01166
G0 F3600 X56.916 Y6.57
G1 F1800 X68.776 Y18.43 E105.84845
G0 F3600 X68.21 Y18.43
G1 F1800 X56.35 Y6.57 E106.68523
G0 F3600 X55.785 Y6.57
G1 F1800 X67.644 Y18.43 E107.52199
G0 F3600 X67.078 Y18.43
G1 F1800 X55.219 Y6.57 E108.35874
G0 F3600 X54.653 Y6.57
G1 F1800 X66.513 Y18.43 E109.19553
G0 F3600 X65.947 Y18.43
G1 F1800 X54.088 Y6.57 E110.03228
G0 F3600 X53.522 Y6.57
G1 F1800 X65.381 Y18.43 E110.86903
G0 F3600 X64.816 Y18.43
