;FLAVOR:Marlin
;TIME:8421
;Filament used: 11.0427m
;Layer height: 0.15
;MINX:25.2
;MINY:5.2
;MINZ:0.3
;MAXX:85.653
;MAXY:104.8
;MAXZ:19.95
;Generated with Cura_SteamEngine 4.10.0
M104 S200
M105
M109 S200
M82 ;absolute extrusion mode
G28 ;Home
G1 Z15.0 F6000 ;Move the platform down 15mm
;Prime the extruder
G92 E0
G1 F200 E3
G92 E0
G92 E0
G92 E0
G1 F1500 E-6.5
;LAYER_COUNT:132
;LAYER:0
M107
;MESH:bottom_UltrasonicSensorCase.stl
G0 F3000 X33.086 Y15.895 Z0.3
;TYPE:WALL-INNER
G1 F1500 E0
G1 F1800 X33.684 Y16.081 E0.03124
G1 X34.315 Y16.081 E0.06272
G1 X34.912 Y15.896 E0.09391
G1 X35.431 Y15.544 E0.12519
G1 X35.819 Y15.056 E0.1563
G1 X36.027 Y14.565 E0.1829
G1 X36.104 Y13.948 E0.21392
G1 X35.995 Y13.329 E0.24528
G1 X35.708 Y12.771 E0.27658
G1 X35.269 Y12.32 E0.30798
G1 X34.72 Y12.022 E0.33915
G1 X34.123 Y11.902 E0.36953
G1 X33.881 Y11.901 E0.3816
G1 X33.281 Y12.021 E0.41213
G1 X32.731 Y12.321 E0.44339
G1 X32.292 Y12.771 E0.47475
G1 X32.005 Y13.329 E0.50605
G1 X31.896 Y13.948 E0.53741
G1 X31.974 Y14.57 E0.56869
G1 X32.23 Y15.137 E0.59972
G1 X32.573 Y15.547 E0.62639
G1 X33.086 Y15.895 E0.65732
G0 F3000 X33.043 Y15.985
G0 X44.472 Y88.768
G0 X45.132 Y89.868
G0 X46.214 Y90.586
G0 X46.243 Y90.491
G1 F1800 X46.856 Y90.598 E0.68837
G1 X47.11 Y90.6 E0.70104
G1 X83.049 Y90.601 E2.49404
G1 X83.469 Y90.685 E2.51541
G1 X83.773 Y90.837 E2.53237
G1 X84.029 Y91.056 E2.54917
G1 X84.262 Y91.402 E2.56999
G1 X84.372 Y91.736 E2.58753
G1 X84.4 Y92.063 E2.6039
G1 X84.399 Y103.044 E3.15175
G1 X84.315 Y103.47 E3.17341
G1 X84.163 Y103.773 E3.19032
G1 X83.944 Y104.029 E3.20713
G1 X83.598 Y104.262 E3.22794
G1 X83.267 Y104.371 E3.24533
G1 X82.778 Y104.4 E3.26977
G1 X26.951 Y104.399 E6.05499
G1 X26.531 Y104.315 E6.07636
G1 X26.227 Y104.163 E6.09331
G1 X25.967 Y103.94 E6.1104
G1 X25.768 Y103.658 E6.12762
G1 X25.63 Y103.27 E6.14817
G1 X25.6 Y102.62 E6.18063
G1 X25.601 Y6.951 E10.95358
G1 X25.685 Y6.531 E10.97494
G1 X25.837 Y6.226 E10.99195
G1 X26.056 Y5.971 E11.00872
G1 X26.402 Y5.738 E11.02953
G1 X26.733 Y5.629 E11.04691
G1 X27.218 Y5.6 E11.07115
G1 X83.049 Y5.601 E13.85657
G1 X83.469 Y5.685 E13.87794
G1 X83.773 Y5.837 E13.8949
G1 X84.029 Y6.056 E13.91171
G1 X84.262 Y6.402 E13.93252
G1 X84.371 Y6.732 E13.94986
G1 X84.4 Y7.295 E13.97798
G1 X84.399 Y43.049 E15.76176
G1 X84.315 Y43.469 E15.78312
G1 X84.163 Y43.773 E15.80008
G1 X83.944 Y44.029 E15.81689
G1 X83.598 Y44.262 E15.8377
G1 X83.266 Y44.372 E15.85515
G1 X82.851 Y44.4 E15.8759
G1 X46.858 Y44.401 E17.6716
G1 X46.243 Y44.51 E17.70276
G1 X45.662 Y44.769 E17.73449
G1 X45.16 Y45.16 E17.76624
G1 X44.769 Y45.662 E17.79799
G1 X44.509 Y46.243 E17.82974
G1 X44.402 Y46.857 E17.86084
G1 X44.4 Y47.151 E17.8755
G1 X44.401 Y88.142 E19.92055
G1 X44.51 Y88.757 E19.95171
G1 X44.769 Y89.338 E19.98345
G1 X45.16 Y89.84 E20.0152
G1 X45.662 Y90.231 E20.04694
G1 X46.243 Y90.491 E20.0787
G0 F3000 X46.214 Y90.586
G0 X75.143 Y99.031
G0 X75.181 Y98.939
G1 F1800 X75.791 Y99.095 E20.11011
G1 X76.411 Y99.063 E20.14108
G1 X76.916 Y98.894 E20.16765
G1 X77.431 Y98.544 E20.19872
G1 X77.819 Y98.056 E20.22982
G1 X78.027 Y97.565 E20.25642
G1 X78.104 Y96.948 E20.28744
G1 X77.995 Y96.329 E20.3188
G1 X77.708 Y95.771 E20.35011
G1 X77.269 Y95.32 E20.38151
G1 X76.718 Y95.021 E20.41278
G1 X76.123 Y94.902 E20.44306
G1 X75.881 Y94.901 E20.45513
G1 X75.281 Y95.021 E20.48566
G1 X74.731 Y95.321 E20.51691
G1 X74.292 Y95.771 E20.54828
G1 X74.005 Y96.329 E20.57958
G1 X73.896 Y96.948 E20.61094
G1 X73.974 Y97.57 E20.64221
G1 X74.232 Y98.142 E20.67352
G1 X74.647 Y98.612 E20.7048
G1 X75.181 Y98.939 E20.73604
G0 F3000 X75.338 Y98.566
;TYPE:WALL-OUTER
G1 F1800 X75.831 Y98.692 E20.76143
G1 X76.336 Y98.666 E20.78665
G1 X76.737 Y98.532 E20.80775
G1 X77.156 Y98.247 E20.83303
G1 X77.472 Y97.85 E20.85834
G1 X77.637 Y97.46 E20.87947
G1 X77.7 Y96.958 E20.90471
G1 X77.612 Y96.458 E20.93004
G1 X77.38 Y96.007 E20.95534
G1 X77.025 Y95.643 E20.98071
G1 X76.58 Y95.401 E21.00598
G1 X76.082 Y95.302 E21.03131
G1 X75.919 Y95.301 E21.03945
G1 X75.419 Y95.401 E21.06488
G1 X74.975 Y95.643 E21.09011
G1 X74.62 Y96.007 E21.11548
G1 X74.388 Y96.458 E21.14078
G1 X74.3 Y96.958 E21.16611
G1 X74.363 Y97.46 E21.19135
G1 X74.572 Y97.922 E21.21665
G1 X74.907 Y98.302 E21.24192
G1 X75.338 Y98.566 E21.26714
G0 F3000 X75.532 Y98.615
G0 X75.408 Y99.099
G0 X46.275 Y90.597
G0 X46.361 Y90.105
G1 F1800 X46.893 Y90.198 E21.29408
G1 X47.112 Y90.2 E21.30501
G1 X83.087 Y90.201 E23.09981
G1 X83.602 Y90.304 E23.12601
G1 X83.995 Y90.5 E23.14792
G1 X84.331 Y90.788 E23.17
G1 X84.625 Y91.226 E23.19632
G1 X84.767 Y91.655 E23.21886
G1 X84.8 Y92.041 E23.23819
G1 X84.799 Y103.082 E23.78903
G1 X84.696 Y103.602 E23.81548
G1 X84.5 Y103.995 E23.83739
G1 X84.212 Y104.331 E23.85946
G1 X83.774 Y104.625 E23.88578
G1 X83.345 Y104.767 E23.90833
G1 X82.785 Y104.8 E23.93631
G1 X26.913 Y104.799 E26.72378
G1 X26.398 Y104.696 E26.74998
G1 X26.005 Y104.5 E26.77189
G1 X25.669 Y104.212 E26.79397
G1 X25.409 Y103.843 E26.81649
G1 X25.233 Y103.345 E26.84284
G1 X25.2 Y102.639 E26.8781
G1 X25.201 Y6.913 E31.65389
G1 X25.304 Y6.398 E31.6801
G1 X25.5 Y6.005 E31.70201
G1 X25.788 Y5.669 E31.72408
G1 X26.226 Y5.375 E31.7504
G1 X26.655 Y5.233 E31.77295
G1 X27.211 Y5.2 E31.80073
G1 X83.087 Y5.201 E34.5884
G1 X83.602 Y5.304 E34.6146
G1 X83.995 Y5.5 E34.63651
G1 X84.331 Y5.788 E34.65859
G1 X84.625 Y6.226 E34.68491
G1 X84.767 Y6.655 E34.70745
G1 X84.8 Y7.295 E34.73943
G1 X84.799 Y43.087 E36.5251
G1 X84.696 Y43.602 E36.5513
G1 X84.5 Y43.995 E36.57321
G1 X84.212 Y44.331 E36.59529
G1 X83.774 Y44.625 E36.6216
G1 X83.345 Y44.767 E36.64415
G1 X82.863 Y44.8 E36.66825
G1 X46.893 Y44.801 E38.4628
G1 X46.361 Y44.895 E38.48976
G1 X45.869 Y45.114 E38.51662
G1 X45.445 Y45.445 E38.54346
G1 X45.114 Y45.869 E38.5703
G1 X44.895 Y46.361 E38.59716
G1 X44.802 Y46.893 E38.62411
G1 X44.8 Y47.153 E38.63708
G1 X44.801 Y88.107 E40.68028
G1 X44.895 Y88.639 E40.70724
G1 X45.114 Y89.131 E40.7341
G1 X45.445 Y89.555 E40.76094
G1 X45.869 Y89.886 E40.78777
G1 X46.361 Y90.105 E40.81464
G0 F3000 X46.558 Y90.139
G0 X46.472 Y90.631
G0 X45.642 Y90.265
G0 X44.735 Y89.358
G0 X33.114 Y16.007
G0 X33.262 Y15.531
G1 F1800 X33.745 Y15.681 E40.83988
G1 X34.255 Y15.681 E40.86532
G1 X34.737 Y15.532 E40.89049
G1 X35.156 Y15.247 E40.91577
G1 X35.472 Y14.85 E40.94109
G1 X35.637 Y14.46 E40.96221
G1 X35.7 Y13.958 E40.98745
G1 X35.612 Y13.458 E41.01278
G1 X35.38 Y13.007 E41.03808
G1 X35.025 Y12.643 E41.06345
G1 X34.582 Y12.402 E41.08861
G1 X34.082 Y12.302 E41.11405
G1 X33.919 Y12.301 E41.12218
G1 X33.419 Y12.401 E41.14762
G1 X32.975 Y12.643 E41.17285
G1 X32.62 Y13.007 E41.19822
G1 X32.388 Y13.458 E41.22352
G1 X32.3 Y13.958 E41.24885
G1 X32.363 Y14.46 E41.27409
G1 X32.572 Y14.922 E41.29939
G1 X32.844 Y15.247 E41.32053
G1 X33.262 Y15.531 E41.34574
G0 F3000 X33.453 Y15.59
G0 X32.915 Y16.25
;TYPE:SKIN
G1 F1800 X33.625 Y16.471 E41.38284
G1 X34.374 Y16.471 E41.42021
G1 X35.083 Y16.251 E41.45725
G1 X35.7 Y15.833 E41.49443
G1 X36.158 Y15.257 E41.53114
G1 X36.407 Y14.667 E41.56309
G1 X36.498 Y13.938 E41.59974
G1 X36.369 Y13.203 E41.63697
G1 X36.028 Y12.541 E41.67412
G1 X35.507 Y12.006 E41.71138
G1 X34.855 Y11.651 E41.74842
G1 X34.162 Y11.512 E41.78368
G1 X33.844 Y11.511 E41.79954
G1 X33.146 Y11.65 E41.83505
G1 X32.493 Y12.007 E41.87218
G1 X31.972 Y12.541 E41.9094
G1 X31.631 Y13.203 E41.94655
G1 X31.502 Y13.938 E41.98378
G1 X31.594 Y14.677 E42.02094
G1 X31.897 Y15.346 E42.05758
G1 X32.309 Y15.839 E42.08963
G1 X32.915 Y16.25 E42.12616
G0 F3000 X25.991 Y6.987
G1 F1800 X26.057 Y6.661 E42.14276
G1 X26.165 Y6.444 E42.15485
G1 X26.317 Y6.266 E42.16653
G1 X26.577 Y6.09 E42.18219
G1 X26.804 Y6.016 E42.1941
G1 X27.241 Y5.99 E42.21594
G1 X83.013 Y5.991 E44.99842
G1 X83.339 Y6.057 E45.01501
G1 X83.555 Y6.165 E45.02706
G1 X83.735 Y6.318 E45.03885
G1 X83.908 Y6.575 E45.0543
G1 X83.983 Y6.805 E45.06637
G1 X84.01 Y7.315 E45.09185
G1 X84.009 Y43.013 E46.87283
G1 X83.943 Y43.339 E46.88943
G1 X83.835 Y43.555 E46.90148
G1 X83.682 Y43.735 E46.91326
G1 X83.423 Y43.91 E46.92886
G1 X83.194 Y43.985 E46.94088
G1 X82.825 Y44.01 E46.95933
G1 X46.823 Y44.011 E48.75548
G1 X46.128 Y44.134 E48.79069
G1 X45.46 Y44.432 E48.82718
G1 X44.882 Y44.882 E48.86373
G1 X44.432 Y45.459 E48.90023
G1 X44.133 Y46.128 E48.93679
G1 X44.012 Y46.822 E48.97194
G1 X44.01 Y47.149 E48.98825
G1 X44.011 Y88.177 E51.03515
G1 X44.134 Y88.872 E51.07036
G1 X44.432 Y89.54 E51.10685
G1 X44.882 Y90.118 E51.1434
G1 X45.459 Y90.568 E51.1799
G1 X46.128 Y90.867 E51.21646
G1 X46.821 Y90.988 E51.25156
G1 X47.108 Y90.99 E51.26588
G1 X83.013 Y90.991 E53.05719
G1 X83.339 Y91.057 E53.07378
G1 X83.555 Y91.165 E53.08583
G1 X83.735 Y91.318 E53.09761
G1 X83.908 Y91.575 E53.11307
G1 X83.988 Y91.819 E53.12588
G1 X84.01 Y92.063 E53.1381
G1 X84.009 Y103.008 E53.68415
G1 X83.944 Y103.339 E53.70098
G1 X83.835 Y103.557 E53.71314
G1 X83.683 Y103.734 E53.72478
G1 X83.425 Y103.908 E53.74031
G1 X83.194 Y103.984 E53.75244
G1 X82.755 Y104.01 E53.77438
G1 X26.987 Y104.009 E56.55666
G1 X26.661 Y103.943 E56.57325
G1 X26.445 Y103.836 E56.58528
G1 X26.254 Y103.672 E56.59784
G1 X26.117 Y103.479 E56.60964
G1 X26.018 Y103.198 E56.62451
G1 X25.99 Y102.62 E56.65338
G1 X25.991 Y6.987 E61.42453
G0 F3000 X44.472 Y88.768
G0 X45.132 Y89.868
G0 X46.173 Y90.502
G0 X75.146 Y94.65
G1 F1800 X74.493 Y95.007 E61.46166
G1 X73.972 Y95.541 E61.49888
G1 X73.631 Y96.203 E61.53603
G1 X73.502 Y96.938 E61.57326
G1 X73.594 Y97.677 E61.61041
G1 X73.901 Y98.356 E61.64759
G1 X74.393 Y98.914 E61.6847
G1 X75.027 Y99.302 E61.72179
G1 X75.752 Y99.487 E61.75912
G1 X76.485 Y99.449 E61.79574
G1 X77.091 Y99.247 E61.8276
G1 X77.7 Y98.833 E61.86434
G1 X78.158 Y98.257 E61.90106
G1 X78.407 Y97.667 E61.93301
G1 X78.498 Y96.938 E61.96966
G1 X78.369 Y96.203 E62.00689
G1 X78.028 Y95.541 E62.04404
G1 X77.507 Y95.006 E62.0813
G1 X76.852 Y94.65 E62.11849
G1 X76.162 Y94.512 E62.1536
G1 X75.844 Y94.511 E62.16946
G1 X75.146 Y94.65 E62.20497
G0 F3000 X26.194 Y103.127
G1 F1800 X26.866 Y103.799 E62.25238
G0 F3000 X27.46 Y103.828
G1 F1800 X26.169 Y102.536 E62.3435
G0 F3000 X26.169 Y101.971
G1 F1800 X28.026 Y103.828 E62.47452
G0 F3000 X28.591 Y103.828
G1 F1800 X26.169 Y101.405 E62.64545
G0 F3000 X26.169 Y100.839
G1 F1800 X29.157 Y103.828 E62.8563
G0 F3000 X29.723 Y103.828
G1 F1800 X26.169 Y100.274 E63.10705
G0 F3000 X26.169 Y99.708
G1 F1800 X30.288 Y103.828 E63.39771
G0 F3000 X30.854 Y103.828
G1 F1800 X26.169 Y99.142 E63.72829
G0 F3000 X26.169 Y98.577
G1 F1800 X31.42 Y103.828 E64.09878
G0 F3000 X31.985 Y103.828
G1 F1800 X26.169 Y98.011 E64.50917
G0 F3000 X26.169 Y97.445
G1 F1800 X32.551 Y103.828 E64.95949
G0 F3000 X33.117 Y103.828
G1 F1800 X26.169 Y96.879 E65.44974
G0 F3000 X26.169 Y96.314
G1 F1800 X33.683 Y103.828 E65.97989
G0 F3000 X34.248 Y103.828
G1 F1800 X26.169 Y95.748 E66.54995
G0 F3000 X26.169 Y95.182
G1 F1800 X34.814 Y103.828 E67.15993
G0 F3000 X35.38 Y103.828
G1 F1800 X26.169 Y94.617 E67.80982
G0 F3000 X26.169 Y94.051
G1 F1800 X35.945 Y103.828 E68.4996
G0 F3000 X36.511 Y103.828
G1 F1800 X26.169 Y93.485 E69.22932
G0 F3000 X26.169 Y92.92
G1 F1800 X37.077 Y103.828 E69.99894
G0 F3000 X37.642 Y103.828
G1 F1800 X26.169 Y92.354 E70.80846
G0 F3000 X26.169 Y91.788
G1 F1800 X38.208 Y103.828 E71.65791
G0 F3000 X38.774 Y103.828
G1 F1800 X26.169 Y91.223 E72.54726
G0 F3000 X26.169 Y90.657
G1 F1800 X39.339 Y103.828 E73.47651
G0 F3000 X39.905 Y103.828
G1 F1800 X26.169 Y90.091 E74.4457
G0 F3000 X26.169 Y89.526
G1 F1800 X40.471 Y103.828 E75.45478
G0 F3000 X41.036 Y103.828
G1 F1800 X26.169 Y88.96 E76.50376
G0 F3000 X26.169 Y88.394
G1 F1800 X41.602 Y103.828 E77.59268
G0 F3000 X42.168 Y103.828
G1 F1800 X26.169 Y87.829 E78.72149
G0 F3000 X26.169 Y87.263
G1 F1800 X42.733 Y103.828 E79.89021
G0 F3000 X43.299 Y103.828
G1 F1800 X26.169 Y86.697 E81.09886
G0 F3000 X26.169 Y86.131
G1 F1800 X43.865 Y103.828 E82.34744
G0 F3000 X44.431 Y103.828
G1 F1800 X26.169 Y85.566 E83.63592
G0 F3000 X26.169 Y85
G1 F1800 X44.996 Y103.828 E84.96431
G0 F3000 X45.562 Y103.828
G1 F1800 X26.169 Y84.434 E86.33262
G0 F3000 X26.169 Y83.869
G1 F1800 X46.128 Y103.828 E87.74084
G0 F3000 X46.693 Y103.828
G1 F1800 X26.169 Y83.303 E89.18895
G0 F3000 X26.169 Y82.737
G1 F1800 X47.259 Y103.828 E90.677
G0 F3000 X47.825 Y103.828
G1 F1800 X26.169 Y82.172 E92.20495
G0 F3000 X26.169 Y81.606
G1 F1800 X48.39 Y103.828 E93.7728
G0 F3000 X48.956 Y103.828
G1 F1800 X26.169 Y81.04 E95.38058
G0 F3000 X26.169 Y80.475
G1 F1800 X49.522 Y103.828 E97.02826
G0 F3000 X50.087 Y103.828
G1 F1800 X26.169 Y79.909 E98.71584
G0 F3000 X26.169 Y79.343
G1 F1800 X50.653 Y103.828 E100.44335
G0 F3000 X51.219 Y103.828
G1 F1800 X26.169 Y78.778 E102.21076
G0 F3000 X26.169 Y78.212
G1 F1800 X51.784 Y103.828 E104.01807
G0 F3000 X52.35 Y103.828
G1 F1800 X26.169 Y77.646 E105.86532
G0 F3000 X26.169 Y77.081
G1 F1800 X52.916 Y103.828 E107.75247
G0 F3000 X53.482 Y103.828
G1 F1800 X26.169 Y76.515 E109.67955
G0 F3000 X26.169 Y75.949
G1 F1800 X54.047 Y103.828 E111.64652
G0 F3000 X54.613 Y103.828
G1 F1800 X26.169 Y75.383 E113.65344
G0 F3000 X26.169 Y74.818
G1 F1800 X55.179 Y103.828 E115.70025
G0 F3000 X55.745 Y103.828
G1 F1800 X26.169 Y74.252 E117.787
G0 F3000 X26.169 Y73.686
G1 F1800 X56.311 Y103.828 E119.91368
G0 F3000 X56.876 Y103.828
G1 F1800 X26.169 Y73.121 E122.08022
G0 F3000 X26.169 Y72.555
G1 F1800 X57.442 Y103.828 E124.2867
G0 F3000 X58.008 Y103.828
G1 F1800 X26.169 Y71.989 E126.53311
G0 F3000 X26.169 Y71.424
G1 F1800 X44.193 Y89.448 E127.8048
G1 X44.263 Y89.518
G0 F3000 X43.902 Y88.591
G1 F1800 X26.169 Y70.858 E129.05596
G0 F3000 X26.169 Y70.292
G1 F1800 X43.831 Y87.954 E130.30211
G0 F3000 X43.831 Y87.389
G1 F1800 X26.169 Y69.727 E131.54826
G0 F3000 X26.169 Y69.161
G1 F1800 X43.831 Y86.823 E132.79441
G0 F3000 X43.831 Y86.257
G1 F1800 X26.169 Y68.595 E134.04056
G0 F3000 X26.169 Y68.03
G1 F1800 X43.831 Y85.692 E135.28671
G0 F3000 X43.831 Y85.126
G1 F1800 X26.169 Y67.464 E136.53286
G0 F3000 X26.169 Y66.898
G1 F1800 X43.831 Y84.56 E137.77901
G0 F3000 X43.831 Y83.995
G1 F1800 X26.169 Y66.332 E139.02519
G0 F3000 X26.169 Y65.767
G1 F1800 X43.831 Y83.429 E140.27134
G0 F3000 X43.831 Y82.863
G1 F1800 X26.169 Y65.201 E141.51749
G0 F3000 X26.169 Y64.635
G1 F1800 X43.831 Y82.298 E142.76368
G0 F3000 X43.831 Y81.732
G1 F1800 X26.169 Y64.07 E144.00983
G0 F3000 X26.169 Y63.504
G1 F1800 X43.831 Y81.166 E145.25598
G0 F3000 X43.831 Y80.6
G1 F1800 X26.169 Y62.938 E146.50213
G0 F3000 X26.169 Y62.373
G1 F1800 X43.831 Y80.035 E147.74828
G0 F3000 X43.831 Y79.469
G1 F1800 X26.169 Y61.807 E148.99443
G0 F3000 X26.169 Y61.241
G1 F1800 X43.831 Y78.903 E150.24058
G0 F3000 X43.831 Y78.338
G1 F1800 X26.169 Y60.676 E151.48673
G0 F3000 X26.169 Y60.11
G1 F1800 X43.831 Y77.772 E152.73287
G0 F3000 X43.831 Y77.206
G1 F1800 X26.169 Y59.544 E153.97902
G0 F3000 X26.169 Y58.979
G1 F1800 X43.831 Y76.641 E155.22517
G0 F3000 X43.831 Y76.075
G1 F1800 X26.169 Y58.413 E156.47132
G0 F3000 X26.169 Y57.847
G1 F1800 X43.831 Y75.509 E157.71747
G0 F3000 X43.831 Y74.944
G1 F1800 X26.169 Y57.282 E158.96362
G0 F3000 X26.169 Y56.716
G1 F1800 X43.831 Y74.378 E160.20977
G0 F3000 X43.831 Y73.812
G1 F1800 X26.169 Y56.15 E161.45592
G0 F3000 X26.169 Y55.584
G1 F1800 X43.831 Y73.247 E162.70211
G0 F3000 X43.831 Y72.681
G1 F1800 X26.169 Y55.019 E163.94826
G0 F3000 X26.169 Y54.453
G1 F1800 X43.831 Y72.115 E165.1944
G0 F3000 X43.831 Y71.55
G1 F1800 X26.169 Y53.887 E166.44059
G0 F3000 X26.169 Y53.322
G1 F1800 X43.831 Y70.984 E167.68674
G0 F3000 X43.831 Y70.418
G1 F1800 X26.169 Y52.756 E168.93289
G0 F3000 X26.169 Y52.19
G1 F1800 X43.831 Y69.852 E170.17904
G0 F3000 X43.831 Y69.287
G1 F1800 X26.169 Y51.625 E171.42519
G0 F3000 X26.169 Y51.059
G1 F1800 X43.831 Y68.721 E172.67134
G0 F3000 X43.831 Y68.155
G1 F1800 X26.169 Y50.493 E173.91749
G0 F3000 X26.169 Y49.928
G1 F1800 X43.83 Y67.589 E175.16357
G0 F3000 X43.83 Y67.023
G1 F1800 X26.169 Y49.362 E176.40964
G0 F3000 X26.169 Y48.796
G1 F1800 X43.83 Y66.458 E177.65576
G0 F3000 X43.83 Y65.892
G1 F1800 X26.169 Y48.231 E178.90184
G0 F3000 X26.169 Y47.665
G1 F1800 X43.83 Y65.326 E180.14792
G0 F3000 X43.83 Y64.761
G1 F1800 X26.169 Y47.099 E181.39403
G0 F3000 X26.169 Y46.533
G1 F1800 X43.83 Y64.195 E182.64015
G0 F3000 X43.83 Y63.629
